build/img/sprite/apple.svg

<svg width="24" height="24" viewBox="0 0 24 24" fill="none" xmlns="http://www.w3.org/2000/svg">
<path fill-rule="evenodd" clip-rule="evenodd" d="M11.9469 6.64646C13.058 6.74748 14.1691 6.0404 14.8761 5.23232C15.5832 4.32323 15.9873 3.11111 15.8862 2C14.8761 2 13.664 2.60606 12.957 3.51515C12.3509 4.22222 11.7448 5.43434 11.9469 6.64646ZM19.5223 8.86869C18.3101 7.05051 16.492 6.84848 15.8859 6.84848C14.8849 6.78592 13.9613 7.14963 13.2353 7.43556C12.7892 7.61125 12.4176 7.75758 12.1485 7.75758C11.8493 7.75758 11.4596 7.59473 11.01 7.40689C10.3974 7.1509 9.67358 6.84848 8.91621 6.84848C7.30005 6.84848 5.68389 7.85859 4.8758 9.37374C3.05762 12.404 4.37075 16.9495 6.08793 19.4747C6.89601 20.6869 7.90611 22 9.21924 22C9.79152 22 10.2062 21.8199 10.644 21.6297C11.1334 21.4171 11.6518 21.1919 12.4516 21.1919C13.2362 21.1919 13.7229 21.4086 14.1922 21.6176C14.629 21.8122 15.0508 22 15.6839 22C16.997 22 17.9061 20.7879 18.7142 19.5758C19.6233 18.1616 20.0273 16.8485 20.0273 16.7475C20.0273 16.7475 17.4011 15.7374 17.4011 12.7071C17.4011 10.4196 19.0588 9.20958 19.446 8.92694C19.4862 8.89756 19.5128 8.8782 19.5223 8.86869Z" fill="white"/>
</svg>

<svg width="24" height="24" fill="none" xmlns="http://www.w3.org/2000/svg"><path fill-rule="evenodd" clip-rule="evenodd" d="M11.947 6.646c1.111.101 2.222-.606 2.93-1.414.706-.909 1.11-2.12 1.01-3.232-1.01 0-2.223.606-2.93 1.515-.606.707-1.212 1.92-1.01 3.131Zm7.575 2.223a4.44 4.44 0 0 0-3.636-2.02c-1.001-.063-1.925.3-2.65.587-.447.175-.818.322-1.088.322-.299 0-.688-.163-1.138-.351-.613-.256-1.336-.559-2.094-.559-1.616 0-3.232 1.01-4.04 2.526-1.818 3.03-.505 7.575 1.212 10.1C6.896 20.688 7.906 22 9.219 22c.573 0 .987-.18 1.425-.37.49-.213 1.008-.438 1.808-.438.784 0 1.27.217 1.74.426.437.194.859.382 1.492.382 1.313 0 2.222-1.212 3.03-2.424.91-1.414 1.313-2.727 1.313-2.829 0 0-2.626-1.01-2.626-4.04 0-2.287 1.658-3.497 2.045-3.78.04-.03.067-.049.076-.058Z" fill="#fff"/></svg>
